X:80
T: Where the Lilies Grow
S: T. Cuffe via J. O'Sullivan
Z: B.Black
N: A version of this tune is called "Denis Doody's"
N: in DJ Taylor's "Music of Ireland - The Big Session"
M: 2/4
L: 1/8
R: polka
K: D
FD FA | d2 dc | B>A Bc | BA FE |
FD FA | d2 dc | B>A Bc | ed d2 :|
f2 e2 | d2 dc | B>A Bc | BA FA |
f2 e2 | d2 dc | B>A Bc | ed d2 |
f2 e2 | d2 dc | B>A Bc | BA FA |
FD FA | d2 dc | B>A Bc | ed d2 ||
